X:1
T:St. Paul’s (Greene), LM
T:St. Paul’s (Greene), LM
T:G. Greene, in Carmina Sacra, 1844
T:Public Domain Courtesy of the Cyber Hymnal™
C:G. Greene, in Carmina Sacra, 1844
Z:Public Domain
Z:Courtesy of the Cyber Hymnal™
%%score 1 2 3 4
L:1/8
Q:1/4=105
M:2/4
K:D
V:1 treble 
V:2 treble 
V:3 treble-8 
V:4 bass 
V:1
 F2 | A2 (AG) | F2 d2 | c2 A2 | A2 A2 | A2 c2 | B2 A2 | A2 ^G2 | A2 A2 | A2 d2 | d2 (dc) | %11
 (Bc) (dA) | A2 A2 | G2 B2 | A2 (AB) | A3 G | F2 |] %17
V:2
 D2 | D2 C2 | D2 G2 | E2 C2 | D2 D2 | E2 E2 | E2 (EF) | E2 (ED) | C2 F2 | F2 D2 | D2 F2 | E2 D2 | %12
 C2 (DA) | G2 G2 | E2 D2 | D2 C2 | D2 |] %17
V:3
 D2 | F2 E2 | D2 B2 | A2 E2 | F2 F2 | E2 A2 | ^G2 (AB) | c2 B2 | A2 A2 | d2 A2 | B2 A2 | G2 F2 | %12
 E2 A2 | B2 e2 | c2 d2 | F2 E2 | D2 |] %17
V:4
 D,2 | D,2 A,,2 | B,,2 G,,2 | A,,2 A,,2 | D,2 D,2 | C,2 A,,2 | (E,D,) (C,D,) | E,2 E,2 | A,,2 D,2 | %9
 D,2 F,2 | G,2 D,2 | E,2 (F,D,) | A,,2 F,2 | G,2 E,2 | (A,G,) (F,G,) | A,2 A,,2 | D,2 |] %17

